Chapitre_02_SystemesNumeriques/Cours/images/SysML/Compteur.svg

<?xml version="1.0" encoding="UTF-8" standalone="no"?>
<svg
   xmlns:dc="http://purl.org/dc/elements/1.1/"
   xmlns:cc="http://creativecommons.org/ns#"
   xmlns:rdf="http://www.w3.org/1999/02/22-rdf-syntax-ns#"
   xmlns:svg="http://www.w3.org/2000/svg"
   xmlns="http://www.w3.org/2000/svg"
   xmlns:sodipodi="http://sodipodi.sourceforge.net/DTD/sodipodi-0.dtd"
   xmlns:inkscape="http://www.inkscape.org/namespaces/inkscape"
   fill-opacity="1"
   color-rendering="auto"
   color-interpolation="auto"
   stroke="black"
   text-rendering="auto"
   stroke-linecap="square"
   width="5.25in"
   stroke-miterlimit="10"
   stroke-opacity="1"
   shape-rendering="auto"
   fill="black"
   stroke-dasharray="none"
   font-weight="normal"
   stroke-width="1"
   viewBox="0 0 504 315"
   height="3.28125in"
   font-family="'Arial'"
   font-style="normal"
   stroke-linejoin="miter"
   font-size="12"
   stroke-dashoffset="0"
   image-rendering="auto"
   id="svg2"
   version="1.1"
   inkscape:version="0.91 r13725"
   sodipodi:docname="Compteur.svg">
  <metadata
     id="metadata123">
    <rdf:RDF>
      <cc:Work
         rdf:about="">
        <dc:format>image/svg+xml</dc:format>
        <dc:type
           rdf:resource="http://purl.org/dc/dcmitype/StillImage" />
      </cc:Work>
    </rdf:RDF>
  </metadata>
  <sodipodi:namedview
     pagecolor="#ffffff"
     bordercolor="#666666"
     borderopacity="1"
     objecttolerance="10"
     gridtolerance="10"
     guidetolerance="10"
     inkscape:pageopacity="0"
     inkscape:pageshadow="2"
     inkscape:window-width="1680"
     inkscape:window-height="988"
     id="namedview121"
     showgrid="false"
     inkscape:zoom="4.2620955"
     inkscape:cx="288.01228"
     inkscape:cy="86.62006"
     inkscape:window-x="-8"
     inkscape:window-y="-8"
     inkscape:window-maximized="1"
     inkscape:current-layer="g5" />
  <!--Generated by the Batik Graphics2D SVG Generator
 This is MagicDraw diagram.-->
  <defs
     id="genericDefs" />
  <g
     id="g5">
    <defs
       id="defs1">
      <linearGradient
         x1="245"
         gradientUnits="userSpaceOnUse"
         x2="385"
         y1="245"
         y2="280"
         id="linearGradient1"
         spreadMethod="pad">
        <stop
           stop-opacity="1"
           stop-color="rgb(255,255,204)"
           offset="0%"
           id="stop9" />
        <stop
           stop-opacity="1"
           stop-color="white"
           offset="100%"
           id="stop11" />
      </linearGradient>
      <linearGradient
         x1="248"
         gradientUnits="userSpaceOnUse"
         x2="386"
         y1="177"
         y2="219"
         id="linearGradient2"
         spreadMethod="pad">
        <stop
           stop-opacity="1"
           stop-color="rgb(255,255,204)"
           offset="0%"
           id="stop14" />
        <stop
           stop-opacity="1"
           stop-color="white"
           offset="100%"
           id="stop16" />
      </linearGradient>
      <linearGradient
         x1="306"
         gradientUnits="userSpaceOnUse"
         x2="330"
         y1="122"
         y2="134"
         id="linearGradient3"
         spreadMethod="pad">
        <stop
           stop-opacity="1"
           stop-color="white"
           offset="0%"
           id="stop19" />
        <stop
           stop-opacity="1"
           stop-color="white"
           offset="100%"
           id="stop21" />
      </linearGradient>
      <clipPath
         clipPathUnits="userSpaceOnUse"
         id="clipPath1">
        <path
           d="M0 -5 L504 -5 L504 315 L0 315 L0 -5 Z"
           id="path24" />
      </clipPath>
      <clipPath
         clipPathUnits="userSpaceOnUse"
         id="clipPath2">
        <path
           d="M168.9288 73.5626 L176.3623 557.5055 L-118.603 562.0363 L-126.0365 78.0934 L168.9288 73.5626 Z"
           id="path27" />
      </clipPath>
    </defs>
    <rect
       style="font-weight:bold;font-size:medium;fill:#b2b2b2;stroke:none;stroke-linecap:butt;stroke-linejoin:round;text-rendering:geometricPrecision"
       id="rect71"
       height="35"
       ry="5"
       rx="5"
       width="140"
       clip-path="url(#clipPath1)"
       y="248"
       x="248" />
    <rect
       style="font-weight:bold;font-size:medium;fill:url(#linearGradient1);stroke:none;stroke-linecap:butt;stroke-linejoin:round;text-rendering:geometricPrecision"
       id="rect73"
       height="35"
       ry="5"
       rx="5"
       width="140"
       clip-path="url(#clipPath1)"
       y="245"
       x="245" />
    <rect
       style="font-weight:bold;font-size:medium;fill:none;stroke:#99995c;stroke-linecap:butt;stroke-linejoin:round;text-rendering:geometricPrecision"
       id="rect75"
       height="35"
       ry="5"
       rx="5"
       width="140"
       clip-path="url(#clipPath1)"
       y="245"
       x="245" />
    <text
       style="font-weight:bold;font-size:medium;stroke:none;stroke-linecap:butt;stroke-linejoin:round;text-rendering:geometricPrecision"
       id="text77"
       clip-path="url(#clipPath1)"
       y="258.13791"
       space="preserve"
       x="301">Etat 2</text>
    <rect
       style="font-weight:bold;font-size:medium;fill:#b2b2b2;stroke:none;stroke-linecap:butt;stroke-linejoin:round;text-rendering:geometricPrecision"
       id="rect79"
       height="42"
       ry="5"
       rx="5"
       width="138"
       clip-path="url(#clipPath1)"
       y="180"
       x="251" />
    <rect
       style="font-weight:bold;font-size:medium;fill:url(#linearGradient2);stroke:none;stroke-linecap:butt;stroke-linejoin:round;text-rendering:geometricPrecision"
       id="rect81"
       height="42"
       ry="5"
       rx="5"
       width="138"
       clip-path="url(#clipPath1)"
       y="177"
       x="248" />
    <rect
       style="font-weight:bold;font-size:medium;fill:none;stroke:#99995c;stroke-linecap:butt;stroke-linejoin:round;text-rendering:geometricPrecision"
       id="rect83"
       height="42"
       ry="5"
       rx="5"
       width="138"
       clip-path="url(#clipPath1)"
       y="177"
       x="248" />
    <line
       style="font-weight:bold;font-size:medium;fill:none;stroke:#99995c;stroke-linecap:butt;stroke-linejoin:round;text-rendering:geometricPrecision"
       id="line85"
       y2="195"
       y1="195"
       x2="386"
       x1="248"
       clip-path="url(#clipPath1)" />
    <text
       style="font-weight:normal;font-size:medium;stroke:none;stroke-linecap:butt;stroke-linejoin:round;text-rendering:geometricPrecision"
       id="text87"
       clip-path="url(#clipPath1)"
       font-weight="normal"
       y="208.13789"
       space="preserve"
       x="275">Incrémenter variable</text>
    <text
       style="font-weight:normal;font-size:medium;stroke:none;stroke-linecap:butt;stroke-linejoin:round;text-rendering:geometricPrecision"
       id="text89"
       clip-path="url(#clipPath1)"
       font-weight="normal"
       y="208.13789"
       space="preserve"
       x="254">do /</text>
    <text
       style="font-weight:bold;font-size:medium;stroke:none;stroke-linecap:butt;stroke-linejoin:round;text-rendering:geometricPrecision"
       id="text91"
       clip-path="url(#clipPath1)"
       y="190.13789"
       space="preserve"
       x="303.5">Etat 1</text>
    <polygon
       style="font-weight:bold;font-size:medium;fill:#b2b2b2;stroke:none;stroke-linecap:butt;stroke-linejoin:round;text-rendering:geometricPrecision"
       id="polygon93"
       points="333,131 321,137 309,131 321,125 "
       clip-path="url(#clipPath1)" />
    <polygon
       style="font-weight:bold;font-size:medium;fill:url(#linearGradient3);stroke:none;stroke-linecap:butt;stroke-linejoin:round;text-rendering:geometricPrecision"
       id="polygon95"
       points="330,128 318,134 306,128 318,122 "
       clip-path="url(#clipPath1)" />
    <polygon
       style="font-weight:bold;font-size:medium;fill:none;stroke:#424242;stroke-linecap:butt;stroke-linejoin:round;text-rendering:geometricPrecision"
       id="polygon97"
       points="330,128 318,134 306,128 318,122 "
       clip-path="url(#clipPath1)" />
    <circle
       style="font-weight:bold;font-size:medium;fill:#424242;stroke:none;stroke-linecap:butt;stroke-linejoin:round;text-rendering:geometricPrecision"
       id="circle99"
       cy="79"
       cx="318"
       clip-path="url(#clipPath1)"
       r="9" />
    <circle
       style="font-weight:bold;font-size:medium;fill:none;stroke:#424242;stroke-linecap:butt;stroke-linejoin:round;text-rendering:geometricPrecision"
       id="circle101"
       cy="79"
       cx="318"
       clip-path="url(#clipPath1)"
       r="9" />
    <path
       style="font-weight:bold;font-size:medium;fill:none;stroke:#424242;stroke-linecap:butt;stroke-linejoin:round;text-rendering:geometricPrecision"
       inkscape:connector-curvature="0"
       id="path103"
       clip-path="url(#clipPath1)"
       d="m 238,267 7,-4 -7,-4" />
    <path
       style="font-weight:bold;font-size:medium;fill:none;stroke:#424242;stroke-linecap:butt;stroke-linejoin:round;text-rendering:geometricPrecision"
       inkscape:connector-curvature="0"
       id="path105"
       clip-path="url(#clipPath1)"
       d="m 245,263 -18,0 c 0,0 -6,0 -6,-6 m 0,0 0,-123 c 0,0 0,-6 6,-6 m 0,0 79,0" />
    <text
       style="font-weight:normal;font-size:medium;stroke:none;stroke-linecap:butt;stroke-linejoin:round;text-rendering:geometricPrecision"
       id="text107"
       clip-path="url(#clipPath1)"
       font-weight="normal"
       y="122.1379"
       space="preserve"
       x="170.5"
       transform="translate(-10.666667,0)">[Variable &gt; Valeur maximale]</text>
    <path
       style="font-weight:bold;font-size:medium;fill:none;stroke:#424242;stroke-linecap:butt;stroke-linejoin:round;text-rendering:geometricPrecision"
       inkscape:connector-curvature="0"
       id="path109"
       clip-path="url(#clipPath1)"
       d="m 314,170 4,7 4,-7" />
    <path
       style="font-weight:bold;font-size:medium;fill:none;stroke:#424242;stroke-linecap:butt;stroke-linejoin:round;text-rendering:geometricPrecision"
       inkscape:connector-curvature="0"
       id="path111"
       clip-path="url(#clipPath1)"
       d="m 318,177 0,-43" />
    <text
       style="font-weight:normal;font-size:medium;stroke:none;stroke-linecap:butt;stroke-linejoin:round;text-rendering:geometricPrecision"
       id="text113"
       clip-path="url(#clipPath1)"
       font-weight="normal"
       y="164.13789"
       space="preserve"
       x="324.5">[Variable &lt;= Valeur maximale]</text>
    <path
       style="font-weight:bold;font-size:medium;fill:none;stroke:#424242;stroke-linecap:butt;stroke-linejoin:round;text-rendering:geometricPrecision"
       inkscape:connector-curvature="0"
       id="path115"
       clip-path="url(#clipPath1)"
       d="m 314,115 4,7 4,-7" />
    <path
       style="font-weight:bold;font-size:medium;fill:none;stroke:#424242;stroke-linecap:butt;stroke-linejoin:round;text-rendering:geometricPrecision"
       inkscape:connector-curvature="0"
       id="path117"
       clip-path="url(#clipPath1)"
       d="m 318,122 0,-34" />
    <text
       style="font-weight:normal;font-size:medium;stroke:none;stroke-linecap:butt;stroke-linejoin:round;text-rendering:geometricPrecision"
       id="text119"
       clip-path="url(#clipPath1)"
       font-weight="normal"
       y="100.1379"
       space="preserve"
       x="322">Evénement / Initialiser variable</text>
    <path
       d="M 237.62803,263 227,263 c 0,0 -6,0 -6,-6 m 0,0 0,-123 c 0,0 0,-6 6,-6 m 0,0 79,0"
       clip-path="url(#clipPath1)"
       id="path4580"
       inkscape:connector-curvature="0"
       style="font-weight:bold;font-size:medium;fill:none;stroke:#424242;stroke-linecap:butt;stroke-linejoin:round;text-rendering:geometricPrecision"
       transform="matrix(-0.81617999,0,0,0.51051565,580.21878,62.909057)"
       sodipodi:nodetypes="cccccccc" />
    <path
       d="m 238,267 7,-4 -7,-4"
       clip-path="url(#clipPath1)"
       id="path4582"
       inkscape:connector-curvature="0"
       style="font-weight:bold;font-size:medium;fill:none;stroke:#424242;stroke-linecap:butt;stroke-linejoin:round;text-rendering:geometricPrecision"
       transform="matrix(-1,0,0,-1,575.80525,391.15169)" />
  </g>
</svg>

<?xml version="1.0" encoding="UTF-8"?>
<!DOCTYPE svg PUBLIC '-//W3C//DTD SVG 1.0//EN'
          'http://www.w3.org/TR/2001/REC-SVG-20010904/DTD/svg10.dtd'>
<svg fill-opacity="1" xmlns:xlink="http://www.w3.org/1999/xlink" color-rendering="auto" color-interpolation="auto" stroke="black" text-rendering="auto" stroke-linecap="square" width="5.25in" stroke-miterlimit="10" stroke-opacity="1" shape-rendering="auto" fill="black" stroke-dasharray="none" font-weight="normal" stroke-width="1" viewBox="0 0 504 315" height="3.28125in" xmlns="http://www.w3.org/2000/svg" font-family="&apos;Arial&apos;" font-style="normal" stroke-linejoin="miter" font-size="12" stroke-dashoffset="0" image-rendering="auto"
><!--Generated by the Batik Graphics2D SVG Generator
 This is MagicDraw diagram.--><defs id="genericDefs"
  /><g
  ><defs id="defs1"
    ><linearGradient x1="245" gradientUnits="userSpaceOnUse" x2="385" y1="245" y2="280" id="linearGradient1" spreadMethod="pad"
      ><stop stop-opacity="1" stop-color="rgb(255,255,204)" offset="0%"
        /><stop stop-opacity="1" stop-color="white" offset="100%"
      /></linearGradient
      ><linearGradient x1="248" gradientUnits="userSpaceOnUse" x2="386" y1="177" y2="219" id="linearGradient2" spreadMethod="pad"
      ><stop stop-opacity="1" stop-color="rgb(255,255,204)" offset="0%"
        /><stop stop-opacity="1" stop-color="white" offset="100%"
      /></linearGradient
      ><linearGradient x1="306" gradientUnits="userSpaceOnUse" x2="330" y1="122" y2="134" id="linearGradient3" spreadMethod="pad"
      ><stop stop-opacity="1" stop-color="white" offset="0%"
        /><stop stop-opacity="1" stop-color="white" offset="100%"
      /></linearGradient
      ><clipPath clipPathUnits="userSpaceOnUse" id="clipPath1"
      ><path d="M0 -5 L504 -5 L504 315 L0 315 L0 -5 Z"
      /></clipPath
      ><clipPath clipPathUnits="userSpaceOnUse" id="clipPath2"
      ><path d="M168.9288 73.5626 L176.3623 557.5055 L-118.603 562.0363 L-126.0365 78.0934 L168.9288 73.5626 Z"
      /></clipPath
    ></defs
    ><g fill="white" stroke="white"
    ><rect x="5" width="484" height="295" y="5" clip-path="url(#clipPath1)" stroke="none"
    /></g
    ><g fill="rgb(221,221,221)" font-style="italic" text-rendering="geometricPrecision" font-size="20" transform="translate(52.1525,122.5143) rotate(-89.12) translate(-52.1525,-122.5143)" stroke="rgb(221,221,221)"
    ><text x="-892" xml:space="preserve" y="122" clip-path="url(#clipPath2)" stroke="none"
      >Version Académique pour Professeur Seulement</text
      ><text x="-892" xml:space="preserve" y="145" clip-path="url(#clipPath2)" stroke="none"
      >Le Développement Commercial est strictement interdit</text
      ><text x="52" xml:space="preserve" y="122" clip-path="url(#clipPath2)" stroke="none"
      >Version Académique pour Professeur Seulement</text
      ><text x="52" xml:space="preserve" y="145" clip-path="url(#clipPath2)" stroke="none"
      >Le Développement Commercial est strictement interdit</text
      ><text x="-748" xml:space="preserve" y="421" clip-path="url(#clipPath2)" stroke="none"
      >Version Académique pour Professeur Seulement</text
      ><text x="-748" xml:space="preserve" y="444" clip-path="url(#clipPath2)" stroke="none"
      >Le Développement Commercial est strictement interdit</text
    ></g
    ><g fill="rgb(66,66,66)" text-rendering="geometricPrecision" stroke-linejoin="round" stroke-linecap="butt" stroke="rgb(66,66,66)"
    ><rect fill="none" x="5" width="484" height="295" y="5" clip-path="url(#clipPath1)"
      /><text font-size="11" x="38" y="18.1379" clip-path="url(#clipPath1)" fill="black" stroke="none" space="preserve"
      >[Machine à Etat] </text
      ><text font-size="11" x="118" y="18.1379" clip-path="url(#clipPath1)" fill="black" stroke="none" space="preserve"
      >Compteur</text
      ><text font-size="11" x="173" y="18.1379" clip-path="url(#clipPath1)" fill="black" stroke="none" space="preserve"
      >Compteur</text
    ></g
    ><g text-rendering="geometricPrecision" font-size="11" font-weight="bold" stroke-linejoin="round" stroke-linecap="butt"
    ><text x="12" space="preserve" y="18.1379" clip-path="url(#clipPath1)" stroke="none"
      >stm </text
      ><text x="166" space="preserve" y="18.1379" font-weight="normal" clip-path="url(#clipPath1)" stroke="none"
      >[ </text
      ><text x="220" space="preserve" y="18.1379" font-weight="normal" clip-path="url(#clipPath1)" stroke="none"
      > ]</text
      ><line clip-path="url(#clipPath1)" fill="none" x1="5" x2="221" y1="23" y2="23" stroke="rgb(66,66,66)"
      /><line clip-path="url(#clipPath1)" fill="none" x1="230" x2="230" y1="5" y2="17" stroke="rgb(66,66,66)"
      /><line clip-path="url(#clipPath1)" fill="none" x1="221" x2="230" y1="23" y2="17" stroke="rgb(66,66,66)"
      /><rect x="248" y="248" clip-path="url(#clipPath1)" fill="rgb(178,178,178)" width="140" rx="5" ry="5" height="35" stroke="none"
      /><rect x="245" y="245" clip-path="url(#clipPath1)" fill="url(#linearGradient1)" width="140" rx="5" ry="5" height="35" stroke="none"
      /><rect x="245" y="245" clip-path="url(#clipPath1)" fill="none" width="140" rx="5" ry="5" height="35" stroke="rgb(153,153,92)"
      /><text x="301" space="preserve" y="258.1379" clip-path="url(#clipPath1)" stroke="none"
      >Etat 2</text
      ><rect x="251" y="180" clip-path="url(#clipPath1)" fill="rgb(178,178,178)" width="138" rx="5" ry="5" height="42" stroke="none"
      /><rect x="248" y="177" clip-path="url(#clipPath1)" fill="url(#linearGradient2)" width="138" rx="5" ry="5" height="42" stroke="none"
      /><rect x="248" y="177" clip-path="url(#clipPath1)" fill="none" width="138" rx="5" ry="5" height="42" stroke="rgb(153,153,92)"
      /><line clip-path="url(#clipPath1)" fill="none" x1="248" x2="386" y1="195" y2="195" stroke="rgb(153,153,92)"
      /><text x="275" space="preserve" y="208.1379" font-weight="normal" clip-path="url(#clipPath1)" stroke="none"
      >Incrémenter variable</text
      ><text x="254" space="preserve" y="208.1379" font-weight="normal" clip-path="url(#clipPath1)" stroke="none"
      >do / </text
      ><text x="303.5" space="preserve" y="190.1379" clip-path="url(#clipPath1)" stroke="none"
      >Etat 1</text
      ><polygon fill="rgb(178,178,178)" clip-path="url(#clipPath1)" points=" 309 131 321 125 333 131 321 137" stroke="none"
      /><polygon fill="url(#linearGradient3)" clip-path="url(#clipPath1)" points=" 306 128 318 122 330 128 318 134" stroke="none"
      /><polygon fill="none" clip-path="url(#clipPath1)" points=" 306 128 318 122 330 128 318 134" stroke="rgb(66,66,66)"
      /><circle fill="rgb(66,66,66)" r="9" clip-path="url(#clipPath1)" cx="318" cy="79" stroke="none"
      /><circle fill="none" r="9" clip-path="url(#clipPath1)" cx="318" cy="79" stroke="rgb(66,66,66)"
      /><path fill="none" d="M238 267 L245 263 L238 259" clip-path="url(#clipPath1)" stroke="rgb(66,66,66)"
      /><path fill="none" d="M245 263 L227 263 C227 263 221 263 221 257 M221 257 L221 134 C221 134 221 128 227 128 M227 128 L306 128" clip-path="url(#clipPath1)" stroke="rgb(66,66,66)"
      /><text x="170.5" space="preserve" y="122.1379" font-weight="normal" clip-path="url(#clipPath1)" stroke="none"
      > [Variable &gt; Valeur maximale]</text
      ><path fill="none" d="M314 170 L318 177 L322 170" clip-path="url(#clipPath1)" stroke="rgb(66,66,66)"
      /><path fill="none" d="M318 177 L318 134" clip-path="url(#clipPath1)" stroke="rgb(66,66,66)"
      /><text x="324.5" space="preserve" y="164.1379" font-weight="normal" clip-path="url(#clipPath1)" stroke="none"
      > [Variable &lt;= Valeur maximale]</text
      ><path fill="none" d="M314 115 L318 122 L322 115" clip-path="url(#clipPath1)" stroke="rgb(66,66,66)"
      /><path fill="none" d="M318 122 L318 88" clip-path="url(#clipPath1)" stroke="rgb(66,66,66)"
      /><text x="322" space="preserve" y="100.1379" font-weight="normal" clip-path="url(#clipPath1)" stroke="none"
      >Evénement / Initialiser variable</text
    ></g
  ></g
></svg
>
